lib/healthicons/icons/outline/places/home_alt.svg

<svg fill="none" height="48" viewBox="0 0 48 48" width="48" xmlns="http://www.w3.org/2000/svg"><path clip-rule="evenodd" d="m41.7083 23.794-17.6504-17.70831-17.76385 17.70591c-.39116.3899-.3922 1.0231-.00231 1.4143.38989.3911 1.02305.3922 1.41421.0023l2.29405-2.2866v18.0782c0 .5523.4477 1 1 1h9c.5523 0 1-.4477 1-1v-8.7408c0-.5522.4477-1 1-1h4c.5523 0 1 .4478 1 1v8.7408c0 .5523.4477 1 1 1h9c.5523 0 1-.4477 1-1v-18.0932l2.2917 2.2993c.3899.3911 1.0231.3922 1.4142.0023.3912-.3899.3922-1.0231.0024-1.4142zm-5.7083-2.894-11.9467-11.98588-12.0533 12.01398v19.0717h7v-7.7408c0-1.6568 1.3431-3 3-3h4c1.6569 0 3 1.3432 3 3v7.7408h7z" fill="#333" fill-rule="evenodd"/></svg>

<svg width="48" height="48" viewBox="0 0 48 48" fill="none" xmlns="http://www.w3.org/2000/svg">
<path fill-rule="evenodd" clip-rule="evenodd" d="M41.7083 23.7942L24.0579 6.08594L6.29405 23.7919C5.90289 24.1818 5.90185 24.8149 6.29174 25.2061C6.68163 25.5973 7.31479 25.5983 7.70595 25.2084L10 22.9218V41C10 41.5523 10.4477 42 11 42H20C20.5523 42 21 41.5523 21 41V32.2593C21 31.707 21.4477 31.2593 22 31.2593H26C26.5523 31.2593 27 31.707 27 32.2593V41C27 41.5523 27.4477 42 28 42H37C37.5523 42 38 41.5523 38 41V22.9068L40.2917 25.2061C40.6816 25.5973 41.3148 25.5983 41.7059 25.2084C42.0971 24.8185 42.0981 24.1854 41.7083 23.7942ZM36 20.9003L24.0533 8.91437L12 20.9284V40H19V32.2593C19 30.6024 20.3431 29.2593 22 29.2593H26C27.6569 29.2593 29 30.6024 29 32.2593V40H36V20.9003Z" fill="#333333"/>
</svg>
